X: 13
T: VFO's Compliments to David Kaynor, The
C: \251 2019 Peter Macfarlane
R: Slow Air
S: https://natunelist.net/vfos-compliments-to-david-kaynor
M: 3/4
L: 1/8
Q: 1/4=96
K: D
V: 1 clef=treble middle=B staves=3
V: 2 clef=treble middle=b
V: 3 clef=bass   middle=d
%
V: 1
"^A"|:\
DE | "D"F3 E F<A | F3 D FA | "Bm"B3 A B<d | "G"B4 dc | B3 A B<d | "D"D2 DC DE | "Bm"F3 E D<A, | "G"B,4 ||
AF | "A"E3 D E<F | "D"A4 FA | "G"B2 B2 "A"c2 | "Bm"d4 Bc | "G"d3 c BA | "D"F<A,- A,2 DE | "A"F3 G E<D | "D"D4 :|
%
"^B"|:\
AF | "A"E3 E F<A | "Bm"B4 BA | "G"G2 D3 E | "D"F4 AF | "A"E2 ED EF | "F#m"A<F- F2 A2 | "G"B3 A FD | "A"E4 ||
DC | "G"B,2 B,2 A,2 | "D"D3 C DE | "Bm"F2 d2 c<A | "G"B4 dc | B3 A B<d | "D"D2 DC DE | "A"F3 G E<D | "D"D4 :|
%
[V:2]|:\
de | d3 d c2 | d4 d2 | f4 d2 | g4 ba | g3 d d2 | f2 fe f2 | d2 B2 B2 | B4 ||
dB | A2 A2 c2 | d4 f2 | g2 g2 a2 | f4 f2 | g3 d d2 | d2 A2 dB | A2 c4 | d4 :|
|:\
dB | A3 A A2 | B4 B2 | G2 G2 A2 | d4 dB | A4 A2 | c4 c2 | B3 B B2 | c4 ||
BA | G2 G2 A2 | d4 Ac | d2 f4 | g4 ba | g3 d d2 | f4 dB | A2 A2 c2 | d4 :|
%
[V:3]|:\
A2 | d4 A2 | d4 c2 | B4 F2 | G6 | G2 B3 G | F2 A3 F | F2 B2 F2 | G4- ||
G2 | A2 c2 A2 | d4 c2 | B2 G2 A2 | B4 A2 | G4 G2 | A2 d3 B | A4 c2 | d4 :|
|:\
d2 | e4 ef | f2 d2 f2 | g4 a2 | d6 | c4 e2 | f4 f2 | g4 fg | a4- ||
a2 | g2 g2 ag | f3 e d2 | f2 d2 d2 | g4 d2 | g4 d2 | f3 e dB | A2 A2 A2 | D4 :|
